X: 36518
T: Sermiliik
R: jig
M: 6/8
K: Aminor
e2e edc|B2c d2B|c2c cBA|^G2A B2E|
A^GA BAB|cBc dcd|1 e2g ^fed|e3 e2d:|2 e2A BAG|A3 A3||
e2e AcA|B2A G2B|A2B c2d|e3 e2e|
g2g dff|e2c A2B|c2B c2d|e3 e3|e2A BAG|A3 A3:|

